src/pos-icons/shape-square-plus.svg

<svg height="24" viewBox="0 0 24 24" width="24" xmlns="http://www.w3.org/2000/svg"><path d="m19 5h3v2h-3v3h-2v-3h-3v-2h3v-3h2zm-2 14v-6h2v8h-16v-16h8v2h-6v12z"/></svg>

<?xml version="1.0" encoding="UTF-8"?><!DOCTYPE svg PUBLIC "-//W3C//DTD SVG 1.1//EN" "http://www.w3.org/Graphics/SVG/1.1/DTD/svg11.dtd"><svg xmlns="http://www.w3.org/2000/svg" xmlns:xlink="http://www.w3.org/1999/xlink" version="1.1" id="mdi-shape-square-plus" width="24" height="24" viewBox="0 0 24 24"><path d="M19,5H22V7H19V10H17V7H14V5H17V2H19V5M17,19V13H19V21H3V5H11V7H5V19H17Z" /></svg>
